icon/fa/tent-arrow-left-right.svg

<svg xmlns="http://www.w3.org/2000/svg" viewBox="0 0 576 512"><!--! Font Awesome Free 6.1.2 by @fontawesome - https://fontawesome.com License - https://fontawesome.com/license/free (Icons: CC BY 4.0, Fonts: SIL OFL 1.1, Code: MIT License) Copyright 2022 Fonticons, Inc.--><path d="M568.1 78.16c5 4.55 7.9 11.04 7.9 17.84 0 6.8-2.9 13.3-7.9 17.8l-80 72c-9.9 8.9-25.1 8.1-33.9-1.7-8.9-9.9-8.1-25.1 1.7-33.9l33.6-30.2H86.54l33.56 30.2c9.8 8.8 10.6 24 1.7 33.9-9.7 9.8-24 10.6-33.86 1.7l-79.995-72C2.888 109.3 0 102.8 0 96c0-6.8 2.888-13.29 7.945-17.84L87.94 6.161c9.86-8.867 24.16-8.068 33.86 1.784 8.9 9.855 8.1 25.025-1.7 33.895L86.54 72H489.5l-33.6-30.16c-9.8-8.87-10.6-24.04-1.7-33.895 8.8-9.852 24-10.651 33.9-1.784l80 71.999zM475.4 294.5c6.6 5.1 11 12.5 12.2 20.8l24 160c1.4 9.2-1.3 18.5-7.4 25.6-6 7-14.9 11.1-24.2 11.1h-96l-96.9-160v160H96c-9.32 0-18.17-4.1-24.25-11.1-6.08-7.1-8.78-16.4-7.4-25.6l24-160c1.24-8.3 5.63-15.7 12.25-20.8l168-128c11.5-8.7 27.3-8.7 38.8 0l168 128z"/></svg>

<svg xmlns="http://www.w3.org/2000/svg" viewBox="0 0 576 512" height="1em" width="1em">
<!--! Font Awesome Free 6.1.2 by @fontawesome - https://fontawesome.com License - https://fontawesome.com/license/free (Icons: CC BY 4.0, Fonts: SIL OFL 1.1, Code: MIT License) Copyright 2022 Fonticons, Inc.-->
  <path d="M568.1 78.16C573.1 82.71 576 89.2 576 96C576 102.8 573.1 109.3 568.1 113.8L488.1 185.8C478.2 194.7 463 193.9 454.2 184.1C445.3 174.2 446.1 159 455.9 150.2L489.5 120H86.54L120.1 150.2C129.9 159 130.7 174.2 121.8 184.1C112.1 193.9 97.8 194.7 87.94 185.8L7.945 113.8C2.888 109.3 0 102.8 0 96C0 89.2 2.888 82.71 7.945 78.16L87.94 6.161C97.8-2.706 112.1-1.907 121.8 7.945C130.7 17.8 129.9 32.97 120.1 41.84L86.54 72H489.5L455.9 41.84C446.1 32.97 445.3 17.8 454.2 7.945C463-1.907 478.2-2.706 488.1 6.161L568.1 78.16zM475.4 294.5C482 299.6 486.4 307 487.6 315.3L511.6 475.3C513 484.5 510.3 493.8 504.2 500.9C498.2 507.9 489.3 512 480 512H384L287.1 352V512H96C86.68 512 77.83 507.9 71.75 500.9C65.67 493.8 62.97 484.5 64.35 475.3L88.35 315.3C89.59 307 93.98 299.6 100.6 294.5L268.6 166.5C280.1 157.8 295.9 157.8 307.4 166.5L475.4 294.5z"/>
</svg>
